X: 49
T: String Quartet No. 12 in E\b Major, Op. 127 mvt 4
C: Ludwig van Beethoven
%%abc-version 2.0
%%abcx-abcm2ps-target-version 5.9.1 (29 Sep 2008)
%%abc-creator hum2abc beta
%%abcx-conversion-date 2021/01/27 10:01:11
%%abc-edited-by Craig Stuart Sapp
%%abcx-initial-encoding-date 2004/09/06/
%%gracespace 0 6 6
%%humdrum-veritas 4128888908
%%humdrum-veritas-data 3511400293
%%linebreak <none>
%%barnumbers 0
%%setbarnb 850
L: 1/8
M: 2/2
N: Derived from quartet12-4.krn
Q: "Finale - Allegro con moto" 1/2=76
%%staves [1 2 3 4]
V: 1 clef=treble
V: 2 clef=treble
V: 3 clef=alto
V: 4 clef=bass
K: Eb
[V:1] [G,2G2]g2a4- | 
[V:2] [G,2G2]G2A4- | 
[V:3] G,2G,2A,4- | 
[V:4] G,,2G,2A,4- | 
[V:1] a2f2d2e2 | 
[V:2] A2F2D2E2 | 
[V:3] A,2F,2D,2E,2 | 
[V:4] A,2F,2D,2E,2 | 
[V:1] =B2c2=A2_B2 | 
[V:2] =B,2C2=A,2_B,2 | 
[V:3] =B,2C2=A,2_B,2 | 
[V:4] =B,,2C,2=A,,2_B,,2 | 
[V:1] G2A2F2B2 | 
[V:2] G,2A,2F2B,2- | 
[V:3] G,2A,2F,2B,2 | 
[V:4] G,,2A,,2F,,2B,,2 | 
[V:1] E B G EA4 | 
[V:2] B,8- | 
[V:3] E,8- | 
[V:4] E,,4F,,4 | 
[V:1] E B G EA4 | 
[V:2] B,8- | 
[V:3] E,8- | 
[V:4] E,,4F,,4 | 
[V:1] E B G E=A4 | 
[V:2] B,4B,4- | 
[V:3] E,4E,4- | 
[V:4] E,,4F,,4- | 
[V:1] B2c2A2F2 | 
[V:2] B,6B, A, | 
[V:3] E,6D,2 | 
[V:4] F,,8 | 
[V:1] E2D2C2B,2 | 
[V:2] G,2B,6- | 
[V:3] E,2F,2E,2D,2 | 
[V:4] G,,4A,,4 | 
[V:1] C2D2E2F2 | 
[V:2] B,4C2D2 | 
[V:3] E,2F,2G,2A,2 | 
[V:4] G,,4F,,4 | 
[V:1] G2B2A2G2 | 
[V:2] [B,2E2]G2F2E2 | 
[V:3] G,2E,2F,2G,2 | 
[V:4] E,,2C,,2D,,2E,,2 | 
[V:1] G2F2F2z2 | 
[V:2] E4D2A,2 | 
[V:3] G,2C2B,2F,2 | 
[V:4] B,,2=A,,2B,,2D,,2 | 
[V:1] E B G EA4 | 
[V:2] G,2B,6- | 
[V:3] E,8- | 
[V:4] E,,4F,,4 | 
[V:1] E B G EA4 | 
[V:2] B,8- | 
[V:3] E,8- | 
[V:4] E,,4F,,4 | 
[V:1] E B G E=A4 | 
[V:2] B,4B,4- | 
[V:3] E,4E,4- | 
[V:4] E,,4F,,4- | 
[V:1] B2c2A2F2 | 
[V:2] B,6B, A, | 
[V:3] E,6D,2 | 
[V:4] F,,8 | 
[V:1] E2D2C2B,2 | 
[V:2] G,2B,6- | 
[V:3] E,2F,2E,2D,2 | 
[V:4] G,,4A,,4 | 
[V:1] C2D2E2F2 | 
[V:2] B,4C2D2 | 
[V:3] E,2F,2G,2A,2 | 
[V:4] G,,4F,,4 | 
[V:1] G2B2A2F2 | 
[V:2] E6B, A, | 
[V:3] B,2G,2E,2F,2 | 
[V:4] E,,2_D,,2C,,2=D,,2 | 
[V:1] F2E2E2B2 | 
[V:2] A,2G,2G,2z2 | 
[V:3] D,2E,2E,2z2 | 
[V:4] E,,2B,,2E,2z2 | 
[V:1] e2d2e2g2 | 
[V:2] z8 | 
[V:3] z4z2E2 | 
[V:4] z4z2B,2 | 
[V:1] B2A2G2e2 | 
[V:2] z4z2c2 | 
[V:3] E2F2G2G2 | 
[V:4] C2D2E2E2 | 
[V:1] e2c2B2=A2 | 
[V:2] c2E2D2C2 | 
[V:3] =A2=A,2F2E2 | 
[V:4] F2z2F,2z2 | 
[V:1] c2B2B2B2 | 
[V:2] E2D2D2z2 | 
[V:3] =A,2B,2B,2z2 | 
[V:4] F,2B,2B,2z2 | 
[V:1] e2d2e2g2 | 
[V:2] z4z2G2 | 
[V:3] z4z2E2 | 
[V:4] z4z2B,2 | 
[V:1] B2A2G2e2 | 
[V:2] A2B2B2A2 | 
[V:3] E2F2G2E,2 | 
[V:4] C2D2E2C,2 | 
[V:1] e2c2B2A2 | 
[V:2] A2z2G2F2 | 
[V:3] E,2z2E,2F,2 | 
[V:4] C,2z2C,2D,2 | 
[V:1] G2A FE2z2 | 
[V:2] E2D2E2G2- | 
[V:3] G,2F,2G,2B,2 | 
[V:4] E,2B,,2E,2z2 | 
[V:1] z4z2e2- | 
[V:2] G2F2G2B2 | 
[V:3] E2D2E2G2 | 
[V:4] z8 | 
[V:1] e2d2e2g a | 
[V:2] G2F2E2G A | 
[V:3] B,2A,2G,2E, F, | 
[V:4] z4z2E,2 | 
[V:1] b2c' d'e'2f' g' | 
[V:2] B2c de2f g | 
[V:3] G,2A, B,C2D E | 
[V:4] E,2C,2B,,2=A,,2 | 
[V:1] g'2a'2f'2z2 | 
[V:2] g2a2f2[D2F2] | 
[V:3] E2F2D2B,2 | 
[V:4] C,2B,,2B,,2A,2 | 
[V:1] z4z2e2 | 
[V:2] G2F2G2B2 | 
[V:3] E2D2E2G2 | 
[V:4] G,2F,2G,2B,2 | 
[V:1] B2A2G2G A | 
[V:2] C2D2E2G, A, | 
[V:3] B,2A,2G,2E, F, | 
[V:4] C,2D,2E,2E,2 | 
[V:1] B2e fg2g a | 
[V:2] B,2E FG2G A | 
[V:3] G,2C DE2E F | 
[V:4] E,2C,2B,,2A,,2 | 
[V:1] b2c' d'e'2e'2 | 
[V:2] B2c de2C D | 
[V:3] G2E A,G,2E, F, | 
[V:4] G,,2A,, F,,E,,2A,, F,, | 
[V:1] e'2b6- | 
[V:2] E4D F D B, | 
[V:3] G,4F,4 | 
[V:4] E,, B,, G,, E,,A,,4 | 
[V:1] b8- | 
[V:2] G2E2D F D B, | 
[V:3] E,4F,4 | 
[V:4] E,, B,, G,, E,,A,,4 | 
[V:1] b2e'2c'4 | 
[V:2] G2E2-E _G F E | 
[V:3] E,8 | 
[V:4] E,, B,, G,, E,,=A,,4 | 
[V:1] f2f2b2b2- | 
[V:2] E D F D C B, C D | 
[V:3] C B, D, D, E, D, E, F, | 
[V:4] B,,2C,2A,,2F,,2 | 
[V:1] b2e2f2B2 | 
[V:2] E2B6- | 
[V:3] G, B, G, E,A,4 | 
[V:4] E,,4D,, B,, F,, D,, | 
[V:1] z2e'2f'2b2 | 
[V:2] B8- | 
[V:3] G, B, G, E,A,4 | 
[V:4] E,,4D,, B,, F,, D,, | 
[V:1] g'2e'2c'2f'2 | 
[V:2] B4c4 | 
[V:3] E, B, G, E,=A,4 | 
[V:4] E,,4D,, _G,, F,, E,, | 
[V:1] f'2e'2e'2e'2 | 
[V:2] d2e2c2=A2 | 
[V:3] B,2C2=A,2F,2 | 
[V:4] D,,2C,,2F,,2F,2 | 
[V:1] d'2z2G c =A F | 
[V:2] B, F D B,E4 | 
[V:3] F, D B, F, E, F, E, F, | 
[V:4] F,8- | 
[V:1] d2B2G c =A F | 
[V:2] B, F D B,E4 | 
[V:3] F, D B, F, E, F, E, F, | 
[V:4] F,8- | 
[V:1] d2f d _d c d B | 
[V:2] B, F D B,=E4 | 
[V:3] F, D B, F, B, =A, B, G, | 
[V:4] F,8 | 
[V:1] B =A B c G F G A | 
[V:2] F2G2E2C2 | 
[V:3] F,2z2z4 | 
[V:4] F,2F4F2- | 
[V:1] B f d Be4 | 
[V:2] D d F Dc4 | 
[V:3] z4F c =A F | 
[V:4] F2B,2=A, F C A, | 
[V:1] B f d Be4 | 
[V:2] D d F Dc4 | 
[V:3] d2z2F c =A F | 
[V:4] F2B,2=A, F C A, | 
[V:1] B f d B=e4 | 
[V:2] D d B F_d4 | 
[V:3] d B F DG4 | 
[V:4] F2B,2-B, _D C B, | 
[V:1] f4^f4 | 
[V:2] c4C4- | 
[V:3] C4c4- | 
[V:4] =A, C B, A, _A, G, A, A, | 
[V:1] ^f2g2e2c2 | 
[V:2] C2D2G2E2 | 
[V:3] c2=B2c2G2 | 
[V:4] A,2G,2C,2E,2 | 
[V:1] d2e2c2=A =a | 
[V:2] B2=A2_G2F E | 
[V:3] D2C2E2C2 | 
[V:4] F,2F,,2F,2F,2 | 
[V:1] b2b2b2b2 | 
[V:2] D2g2f2e2 | 
[V:3] B,2B2B2c2 | 
[V:4] B,,2E2D2C2 | 
[V:1] b2c' d'e'2d'2 | 
[V:2] d2c2B2B2 | 
[V:3] d2F2B2B,2 | 
[V:4] B,2=A,2G,2F,2 | 
[V:1] g'2f'2e'2d'2 | 
[V:2] B2=B2c2d =e | 
[V:3] B,2=B,2C2D =E | 
[V:4] E,2D,2C,2B,,2 | 
[V:1] c'2b2c'2f2 | 
[V:2] f2g2=a2g a | 
[V:3] F2G2=A2B c | 
[V:4] =A,,2G,,2F,,2E2 | 
[V:1] b2b2b2b2 | 
[V:2] f2g2f2e2 | 
[V:3] B2G2F2E2 | 
[V:4] D2E2D2C2 | 
[V:1] b2c' d'e'2d'2 | 
[V:2] d2c2B2B2 | 
[V:3] D2C2B,2B,2 | 
[V:4] B,2=A,2G,2F,2 | 
[V:1] g'2f'2e'2d'2 | 
[V:2] B2=B2c2d2 | 
[V:3] B,2=B,2C2D2 | 
[V:4] E,2D,2C,2B,,2 | 
[V:1] c'2b2=a2g2 | 
[V:2] =a2g2f2e2 | 
[V:3] F2z2z4 | 
[V:4] F,2z2z4 | 
[V:1] f2e2d2c2 | 
[V:2] d2c2B2F2 | 
[V:3] F2E2D2C2 | 
[V:4] D2C2B,2F,2 | 
[V:1] B2=A2G2F2 | 
[V:2] D2F2E2D2 | 
[V:3] B,2z2z4 | 
[V:4] D,2z2z2B,,2 | 
[V:1] g2f2e2d2 | 
[V:2] G,2G2G2B2 | 
[V:3] E2D2C2B,2 | 
[V:4] B,,2=B,,2C,2D, =E, | 
[V:1] c2B2=A2G2 | 
[V:2] =A2=E2D2[B,2E2] | 
[V:3] C2_D2C2D2 | 
[V:4] F,2F,2F,2F,2 | 
[V:1] _D2=D2B,2D2 | 
[V:2] z8 | 
[V:3] z8 | 
[V:4] _D,2=D,2B,,2D,2 | 
[V:1] E2=E2G4 | 
[V:2] z4[G,2G2]g2 | 
[V:3] z4G,2G2 | 
[V:4] E,2=E,2G,4 | 
[V:1] A2=A2F2A2 | 
[V:2] z8 | 
[V:3] z8 | 
[V:4] A,2=A,2F,2A,2 | 
[V:1] B2=B2d4 | 
[V:2] z4D2d2 | 
[V:3] z4D,2D2 | 
[V:4] B,2=B,2D4 | 
[V:1] =B2c2e4 | 
[V:2] z4E2e2 | 
[V:3] z4E,2E2 | 
[V:4] =B,2C2E4 | 
[V:1] ^c2d2f4 | 
[V:2] z4F2f2 | 
[V:3] z4F,2F2 | 
[V:4] ^C2D2F4 | 
[V:1] [B8b8] | 
[V:2] ^d2=e2[e4g4] | 
[V:3] ^D2[G,2=E2][G,4E4] | 
[V:4] =B,,2[C,,2C,2][C,,4C,4] | 
[V:1] [B8b8] | 
[V:2] ^d2=e2[e4g4] | 
[V:3] ^D2[G,2=E2][G,4E4] | 
[V:4] =B,,2[C,,2C,2][C,,4C,4] | 
[V:1] [B8b8] | 
[V:2] ^d2=e2[e4g4] | 
[V:3] ^D2[G,2=E2][G,4E4] | 
[V:4] =B,,2[C,,2C,2][C,,4C,4] | 
[V:1] b2=a gf2e d | 
[V:2] f2f ed2c B | 
[V:3] F,2G,2B,2C D | 
[V:4] D,,2E,,2F,,2=A, B, | 
[V:1] b2(3c' b =ab2(3c' b a | 
[V:2] ^d2=e2[e4g4] | 
[V:3] [C,2G,2][C,2G,2][C,4G,4] | 
[V:4] [C,,2G,,2][C,,2G,,2][C,,4G,,4] | 
[V:1] b2(3c' b =ab2(3c' b a | 
[V:2] ^d2=e2[e4g4] | 
[V:3] [C,2G,2][C,2G,2][C,4G,4] | 
[V:4] [C,,2G,,2][C,,2G,,2][C,,4G,,4] | 
[V:1] b2(3c' b =ab2(3c' b a | 
[V:2] ^d2=e2[e4g4] | 
[V:3] [C,2G,2][C,2G,2][C,4G,4] | 
[V:4] [C,,2G,,2][C,,2G,,2][C,,4G,,4] | 
[V:1] b2=a gf2e d | 
[V:2] B2B2d2c B | 
[V:3] F,2G,2B,2C D | 
[V:4] D,,2E,,2F,,2=A, B, | 
[V:1] f e d ee2e2 | 
[V:2] d c =B cc2c2 | 
[V:3] D E F EE2C2 | 
[V:4] =B, C D CC2=A,2 | 
[V:1] e d c dd2z2 | 
[V:2] c B =A BB2z2 | 
[V:3] C D E DD2B,2 | 
[V:4] =A, B, C B,B,2G,2 | 
[V:1] z8 | 
[V:2] z8 | 
[V:3] =A, G, F, G,F,2G,2 | 
[V:4] F, E, D, E,D,2E,2 | 
[V:1] z4z2g f | 
[V:2] z4z2e d | 
[V:3] F, E, D, E,D,2C D | 
[V:4] D, C, B,, C,B,,2=A, B, | 
[V:1] f e d ee2e2 | 
[V:2] d c =B cc2c2 | 
[V:3] D E F EE2C2 | 
[V:4] =B, C D CC2=A,2 | 
[V:1] e d c dd2z2 | 
[V:2] c B =A BB2z2 | 
[V:3] C D E DD2c B | 
[V:4] =A, B, C B,B,2[K:clef=tenor]A G | 
[V:1] z8 | 
[V:2] z8 | 
[V:3] B A G AA2A2 | 
[V:4] G F =E FF2F2 | 
[V:1] z4z2e'2 | 
[V:2] z4z2c'2 | 
[V:3] A G F GG2z2 | 
[V:4] F E D EE2z2 | 
[V:1] d' c' b c'b2c'2 | 
[V:2] b a g ag2a2 | 
[V:3] z8 | 
[V:4] z8 | 
[V:1] b a g ag2c' b | 
[V:2] g f e fe2a g | 
[V:3] z4z2G2 | 
[V:4] z4z2E2 | 
[V:1] b a g aa2a2 | 
[V:2] g f =e ff2f2 | 
[V:3] E Fz2z4 | 
[V:4] C Dz2z4 | 
[V:1] a g ^f gg2g2 | 
[V:2] f e d ee2e2 | 
[V:3] F Gz2z4 | 
[V:4] D Ez2z4[K:clef=bass] | 
[V:1] a g ^f gg2g2 | 
[V:2] f e d ee2e2 | 
[V:3] E Gz2z4 | 
[V:4] =B, Ez2z4 | 
[V:1] a g ^f gg2g2 | 
[V:2] f e d ee2e2 | 
[V:3] =B, Ez2z4 | 
[V:4] G, =B,z2z4 | 
[V:1] a g ^f gg2g2 | 
[V:2] f e d ee2e2 | 
[V:3] G, =B,z2z4 | 
[V:4] E, G,z2z4 | 
[V:1] a g ^f gg2g2 | 
[V:2] f e d ee2e2 | 
[V:3] E, G,z2E, G,z2 | 
[V:4] =B,, E,z2C, E,z2 | 
[V:1] [G,2G2]g2a4- | 
[V:2] [G,2G2]G2A4- | 
[V:3] [G,2G2]G2A4- | 
[V:4] G,,2G,2A,4- | 
[V:1] a2f2d2e2 | 
[V:2] A2F2D2E2 | 
[V:3] A2F2D2E2 | 
[V:4] A,2F,2D,2E,2 | 
[V:1] =B2c2=A2_B2 | 
[V:2] =B,2C2=A,2_B,2 | 
[V:3] =B,2C2=A,2_B,2 | 
[V:4] =B,,2C,2=A,,2_B,,2 | 
[V:1] G2A2F2B2 | 
[V:2] G,2A,2F2B2 | 
[V:3] G,2A,2F,2B,2 | 
[V:4] G,,2A,,2F,,2B,,2 | 
[V:1] F2G2E2f2 | 
[V:2] F2G2E2z2 | 
[V:3] F,2G,2E,2A,2 | 
[V:4] F,,2G,,2E,,4- | 
[V:1] c2_d2B2e2 | 
[V:2] z4z2G2 | 
[V:3] =A,2B,2G,2z2 | 
[V:4] E,,4E,4- | 
[V:1] =B2c2A2_d2 | 
[V:2] G2A2C2G2 | 
[V:3] z4z2B,2 | 
[V:4] E,8- | 
[V:1] =A2B2G2c2 | 
[V:2] _D4C4- | 
[V:3] G6G,2 | 
[V:4] E,4=E,4 | 
[V:1] G2A2F2a2 | 
[V:2] C6f2- | 
[V:3] B,2C2A,2_d2 | 
[V:4] F,6F,2 | 
[V:1] a2g2g2g2 | 
[V:2] f2=e2e2e2 | 
[V:3] =B2c2c2c2 | 
[V:4] C2C2C2C2 | 
[V:1] g2c'2c'2c'2 | 
[V:2] =e2[e2g2][e2g2][e2g2] | 
[V:3] c2c2c2c2 | 
[V:4] G2G2G2G2 | 
[V:1] c'2d' =e'f'2e'2 | 
[V:2] [=e2g2][e2g2][d2g2][c2g2] | 
[V:3] c2c2c2c2 | 
[V:4] G2G2G2G2 | 
[V:1] =a'2g'2f'2=e'2 | 
[V:2] f2=e2=b2c'2 | 
[V:3] c2c2d2c2 | 
[V:4] G2G2G2G2 | 
[V:1] d'2c'2d'2g2 | 
[V:2] =b2g2g2g2 | 
[V:3] d2=A2=B2d2 | 
[V:4] G2G2G2G2 | 
[V:1] g2g2f2e2 | 
[V:2] [G2e2]G2F2E2 | 
[V:3] C,2C,2C,2C,2 | 
[V:4] C,,2C,,2C,,2C,,2 | 
[V:1] d2c2=B2c2 | 
[V:2] D2C2=B,2C2 | 
[V:3] C,2D, E,F,2E,2 | 
[V:4] C,,2D,, E,,F,,2E,,2 | 
[V:1] c2c'2c'2c'2 | 
[V:2] C2c2c2c2 | 
[V:3] A,2G,2F,2E,2 | 
[V:4] A,,2G,,2F,,2E,,2 | 
[V:1] c'2d' e'f'2e'2 | 
[V:2] c2d ef2e2 | 
[V:3] D,2C,2D,2E,2 | 
[V:4] D,,2C,,2=B,,2C,2 | 
[V:1] e'2d'2c'2=b2 | 
[V:2] e2d2c2=B2 | 
[V:3] G,2G2G,2G,2 | 
[V:4] G,,2G,2G,,2G,,2 | 
[V:1] =a2g2^f2g2 | 
[V:2] =A2G2^F2G2 | 
[V:3] G,2=A, =B,C2B,2 | 
[V:4] G,,2=A,, =B,,C,2B,,2 | 
[V:1] g2g2g2g2 | 
[V:2] G2G2G2G2 | 
[V:3] E2D2C2=B,2 | 
[V:4] E,2D,2C,2=B,,2 | 
[V:1] g2=a =bc'2b2 | 
[V:2] G2=A =Bc2B2 | 
[V:3] =A,2G,2^F,2G,2 | 
[V:4] =A,,2G,,2^F,,2G,,2 | 
[V:1] =b2c' d'e'2d'2 | 
[V:2] =B2c de2d2 | 
[V:3] E2D2C2=B,2 | 
[V:4] E,2D,2C,2=B,,2 | 
[V:1] d'2e' f'g'2=B2 | 
[V:2] d2e fg2=B,2 | 
[V:3] A,2G,2F,2D,2 | 
[V:4] A,,2G,,2F,,2D,,2 | 
[V:1] c g e ca4 | 
[V:2] c2c2c2c2 | 
[V:3] E4F4 | 
[V:4] z8 | 
[V:1] c g e cg4 | 
[V:2] c2d ef2e2 | 
[V:3] E4C4 | 
[V:4] z8 | 
[V:1] z8 | 
[V:2] =B4c4 | 
[V:3] G d =B Ge4 | 
[V:4] G,2G,2G,2G,2 | 
[V:1] g2g2g2g2 | 
[V:2] =B4G4 | 
[V:3] G d =B Gd4 | 
[V:4] G,2=A, =B,C2B,2 | 
[V:1] c'2c'2c'2c'2 | 
[V:2] C G =E CA4 | 
[V:3] =e2[G2c2][F2c2][F2c2] | 
[V:4] B,,4C,4 | 
[V:1] c'2d' =e'f'2e'2 | 
[V:2] C G =E C[G4B4] | 
[V:3] [=E2c2][C,2C2][C,2C2][C,2C2] | 
[V:4] B,,4G,,4 | 
[V:1] f'2f'2g'2g'2 | 
[V:2] A2[c2f2][c2=e2][c2e2] | 
[V:3] [C,2C2][C,2C2]C, G, =E, C, | 
[V:4] F,, C, A,, F,,B,,4- | 
[V:1] g'2g'2g'2g'2 | 
[V:2] [c2=e2][c2e2][c2e2][c2e2] | 
[V:3] =E, C G, E, G, =E C G, | 
[V:4] B,,8- | 
[V:1] =E c G E G =e c G | 
[V:2] [c2=e2][c2e2][c2e2][c2e2] | 
[V:3] C G =E C E c G E | 
[V:4] B,,8- | 
[V:1] c g =e c e g' =e' c' | 
[V:2] [c2=e2][c2e2][c2e2][c2e2] | 
[V:3] G =e c G =E C G, =E, | 
[V:4] B,,8 | 
[V:1] f'2f'2g'2g'2 | 
[V:2] [c2f2][c2f2][c2=e2][c2e2] | 
[V:3] [C,2=A,2][C,2C2]C, G, =E, C, | 
[V:4] F,, C, =A,, F,,B,,4- | 
[V:1] g'2g'2g'2g'2 | 
[V:2] [c2=e2][c2e2][c2e2][c2e2] | 
[V:3] =E, C G, E, G, =E C G, | 
[V:4] B,,8- | 
[V:1] =E c G E G =e c G | 
[V:2] [c2=e2][c2e2][c2e2][c2e2] | 
[V:3] C G =E C E c G E | 
[V:4] B,,8- | 
[V:1] c g =e c e g' =e' c' | 
[V:2] [c2=e2][c2e2][c2e2][c2e2] | 
[V:3] G =e c G =E C G, =E, | 
[V:4] B,,8 | 
[V:1] c'4d b f d | 
[V:2] e c' f ed4 | 
[V:3] C,2C2D2F2 | 
[V:4] =A,,2=A,2B,4 | 
[V:1] b4c a e c | 
[V:2] _d b e dc4 | 
[V:3] B2B,2C2E2 | 
[V:4] G,4A,4 | 
[V:1] a4B g _d B | 
[V:2] c a _d cB4- | 
[V:3] A2A,2B,2_D2 | 
[V:4] F,4G,4 | 
[V:1] b g c ba4- | 
[V:2] B2c2-c a f c | 
[V:3] G2G,2A,2A2 | 
[V:4] =E,4F,4 | 
[V:1] a f B ag4- | 
[V:2] B4-B g e B | 
[V:3] F2F,2G,2G2 | 
[V:4] D,4E,4 | 
[V:1] g =e A gf4 | 
[V:2] A4-A f _d A | 
[V:3] C2C,2F,2F2 | 
[V:4] C,4_D,4 | 
[V:1] e c A ed4 | 
[V:2] A4F _c A F | 
[V:3] C2c2_c2_C2 | 
[V:4] E,4E,4- | 
[V:1] _d B _F dc4 | 
[V:2] G4E c A E | 
[V:3] B,2B2A2A,2 | 
[V:4] E,8- | 
[V:1] _c4B4- | 
[V:2] D A F D _D G _F D | 
[V:3] F2A2G2G,2 | 
[V:4] E,8- | 
[V:1] B8 | 
[V:2] _F B G F G _d B G | 
[V:3] G2_d4G B | 
[V:4] E,8 | 
[V:1] A8- | 
[V:2] c a e cf4 | 
[V:3] A e c A_d4 | 
[V:4] A,2z2z4 | 
[V:1] A8- | 
[V:2] c a e cf4 | 
[V:3] A e c A_d4 | 
[V:4] z8 | 
[V:1] A8- | 
[V:2] c a e cf2F2- | 
[V:3] A e c Ad4 | 
[V:4] z8 | 
[V:1] A4G2A B | 
[V:2] F2E4F G | 
[V:3] e2f2_d2B2 | 
[V:4] z8 | 
[V:1] c2_d2=d2e2- | 
[V:2] E2B2A2G2 | 
[V:3] A2G2F2E2 | 
[V:4] z8 | 
[V:1] e4-e fg2 | 
[V:2] A2B2c2_d2 | 
[V:3] F2G2A2B2 | 
[V:4] z8 | 
[V:1] a2e2g2a2 | 
[V:2] e2c2B2A2 | 
[V:3] c2e2_d2c2 | 
[V:4] z8 | 
[V:1] a2g2g4 | 
[V:2] E2d2e2_d2 | 
[V:3] c2B2B4 | 
[V:4] z8 | 
[V:1] a4e b g e | 
[V:2] c4G4 | 
[V:3] A e c A_d4 | 
[V:4] z4[K:clef=tenor]E4- | 
[V:1] a4e b g e | 
[V:2] c4G4 | 
[V:3] A e c A_d4 | 
[V:4] E c A EE4- | 
[V:1] a4-a c' b a | 
[V:2] c4F4 | 
[V:3] A e c Ad4 | 
[V:4] E c A EE4- | 
[V:1] g2a2f2_d'2 | 
[V:2] G2E4F G | 
[V:3] e2f2_d2B2 | 
[V:4] E2z2G2A B | 
[V:1] c'2b2a2g2 | 
[V:2] A2B2c2_d2 | 
[V:3] A2G2F2E2 | 
[V:4] c2_d2e2e2 | 
[V:1] a2b2c'2_d'2 | 
[V:2] c2E6- & x2B,2A,2G,2 | 
[V:3] F2G2A2B2 | 
[V:4] e8- | 
[V:1] c'2=a2b2g2 | 
[V:2] E2F2_F2E2 & A,2x6 | 
[V:3] c2e2_d2B2 | 
[V:4] e2c2B2_d2 | 
[V:1] g2a2a2z2 | 
[V:2] E2A2A2z2 | 
[V:3] B2A2A2z2 | 
[V:4] d2c2c2[K:clef=tenor]E2 | 
[V:1] z8 | 
[V:2] z8 | 
[V:3] z8 | 
[V:4] A2G2A2c2 | 
[V:1] z8 | 
[V:2] z8 | 
[V:3] z4z2C2 | 
[V:4] E2_D2C2A2 | 
[V:1] z8 | 
[V:2] z4z2B,2 | 
[V:3] C2B,2B, A, G, F, | 
[V:4] A2G2G F E D | 
[V:1] z4z2e2 | 
[V:2] A,2G,2G,2z2 | 
[V:3] E,2B,2E,2z2 | 
[V:4] F2E2E2E2 | 
[V:1] a2g2a2c'2 | 
[V:2] z4z2A2 | 
[V:3] z4z2E,2 | 
[V:4] A2G2A2c2 | 
[V:1] e2_d2c2a2 | 
[V:2] C2B,2A,2=E2 | 
[V:3] E,2=E,2F,2C,2 | 
[V:4] E2_D2C2A2 | 
[V:1] a2g2g f e _d | 
[V:2] F2E2E D C B, | 
[V:3] _D,6_D2 | 
[V:4] A2G2G F E _D | 
[V:1] c2_d BA2e2 | 
[V:2] A,2G,2C2B G | 
[V:3] E2E,4E, _D, | 
[V:4] C2_D B,A,2[K:clef=bass]_D, B,, | 
[V:1] a2g2a2c'2 | 
[V:2] A2G2A2c2 | 
[V:3] C,4C,4- | 
[V:4] A,,4C,,4- | 
[V:1] e2_d2c2c'2 | 
[V:2] C2B,2A,2G, g | 
[V:3] C,2_D,2E,2=E,2 | 
[V:4] C,,2_D,,2E,,2=E,,2 | 
[V:1] c'2b a a g g f | 
[V:2] a2g f f e e d | 
[V:3] F,2G,2A,2B,2 | 
[V:4] F,,2G,,2A,,2B,,2 | 
[V:1] a2g2g2e2 | 
[V:2] f2e2e2G G, | 
[V:3] E,2D2E2_D2 | 
[V:4] E,,2D,2E,2_D,2 | 
[V:1] a2g2a2c'2 | 
[V:2] E2_D2C2A2 | 
[V:3] C2B,2A,2E,2 | 
[V:4] C,2B,,2A,,2E,,2 | 
[V:1] e2_d2c2a2 | 
[V:2] c2B2A2=e2 | 
[V:3] F,2G,2A,2C,2- | 
[V:4] F,,2G,,2A,,2C,,2- | 
[V:1] a2g2g f e _d | 
[V:2] f2e2e _d c B | 
[V:3] C,2_D,4E,2 | 
[V:4] C,,2_D,,4E,,2 | 
[V:1] c2_d BG2d2 | 
[V:2] A2G _DB,2G2 | 
[V:3] E,2B G_D2B2 | 
[V:4] E,,2E,4E2 | 
[V:1] f2e cA2=e2 | 
[V:2] E2E4=E2 | 
[V:3] A2z2z4 | 
[V:4] C2C6 | 
[V:1] g2f _dB2g2 | 
[V:2] F2F4G2- | 
[V:3] z8 | 
[V:4] _D2D4=E2- | 
[V:1] a2g =ec2g2 | 
[V:2] G2G6- | 
[V:3] z8 | 
[V:4] E2=E6- | 
[V:1] b2=a ec2a2 | 
[V:2] G2=A6- | 
[V:3] z8 | 
[V:4] E2F6- | 
[V:1] c'2=b fd2b2 | 
[V:2] A2=B6- | 
[V:3] z8 | 
[V:4] F2G6- | 
[V:1] c'2=b fd2b2 | 
[V:2] B2=B6- | 
[V:3] z8 | 
[V:4] G2G6- | 
[V:1] c'2=b fd2_b2 | 
[V:2] B2=B4[_B2f2]- | 
[V:3] z4z2d2- | 
[V:4] G2A6- | 
[V:1] c'2b fd2b2 | 
[V:2] [B2f2][B6f6]- | 
[V:3] d2d6- | 
[V:4] A2A6- | 
[V:1] c'2b fd2b2 | 
[V:2] [B2f2][B6f6]- | 
[V:3] d2d6- | 
[V:4] A2A6- | 
[V:1] c'2b fd2b2 | 
[V:2] [B2f2][B6f6] | 
[V:3] d2d6 | 
[V:4] A2A6 | 
[V:1] e b g ea4 | 
[V:2] [B2g2]e2c f d B- | 
[V:3] e2B2A4 | 
[V:4] G4F4 | 
[V:1] e b g ea4 | 
[V:2] B2e2c f d B- | 
[V:3] e2B2A4 | 
[V:4] G4F4 | 
[V:1] e b g e=a4 | 
[V:2] B2e2-e _g f e | 
[V:3] e2B2c e d c | 
[V:4] G4F4- | 
[V:1] b2c'2a2f2 | 
[V:2] _d2c4c2 | 
[V:3] B2G2A2C2 | 
[V:4] F2=E2F2A,2 | 
[V:1] e2d2c2B2 | 
[V:2] c2B2_G2F2 | 
[V:3] _G2F2E2D2 | 
[V:4] =A,2B,4B,2 | 
[V:1] c2d2e2f2 | 
[V:2] G2B4d2 | 
[V:3] E2F2G2A,2 | 
[V:4] B,2A,2G,2F,2 | 
[V:1] g2b2a2g2 | 
[V:2] e2g2f2e2 | 
[V:3] G,2E,2F,2G,2 | 
[V:4] E,2C,2D,2E,2 | 
[V:1] g2f2f2b2- | 
[V:2] e4d2[B,2F2] | 
[V:3] G,2C2B,2[F,2A,2] | 
[V:4] B,,2=A,,2B,,2D,,2 | 
[V:1] b4-b f' d' b | 
[V:2] [B,G] B G EA4 | 
[V:3] [E,G,] B, G, E,A,4 | 
[V:4] E,,8- | 
[V:1] e'2b2-b f' d' b | 
[V:2] G A G EA4 | 
[V:3] G, B, G, E,A,4 | 
[V:4] E,,8- | 
[V:1] e'2b e'- e' _g' f' e' | 
[V:2] G B G E=A4 | 
[V:3] G, B, G, E,=A,4 | 
[V:4] E,,2G,,2_G,,2F,,2 | 
[V:1] e' d' c' d' d' c' c' b | 
[V:2] B2c'2a2f2 | 
[V:3] B,4-B, D, E, F, | 
[V:4] F,,6G,, A,, | 
[V:1] b e' b d' b c' b b | 
[V:2] e2d2c2B2 | 
[V:3] G,2F,2E,2D,2 | 
[V:4] G,,4A,,4 | 
[V:1] c'2d'2e'2f'2 | 
[V:2] c2d2e2f2 | 
[V:3] E,2F,2G,2A,2 | 
[V:4] G,,4F,,4 | 
[V:1] g'2b'2a'2f'2 | 
[V:2] g2b2a2f2 | 
[V:3] B,2E,4F, A, | 
[V:4] E,,2_D,,2C,,2=D,,2 | 
[V:1] f'2e'2e'2b2 | 
[V:2] f2e2e2g a | 
[V:3] A,2G,2G,2E F | 
[V:4] E,,2E, F, G, A, B, B, | 
[V:1] e'2d'2e'2g'2 | 
[V:2] b a a g g f e d | 
[V:3] G F F E e d c B | 
[V:4] B,2z2z4 | 
[V:1] b2a2g2e'2 | 
[V:2] c B c d e e f g | 
[V:3] A G A F E G A B | 
[V:4] z4z2B, B, | 
[V:1] e'2c'2b2=a2 | 
[V:2] a g g f f e e f | 
[V:3] c e e d d c c d | 
[V:4] B, B, B, B, B, B, B, B, | 
[V:1] c'2b2b2b e' | 
[V:2] f g f e e d g f | 
[V:3] d e d c c B B A | 
[V:4] B, B, B, B,B,2z2 | 
[V:1] e'2d'2e'2g'2 | 
[V:2] b a a g g f e d | 
[V:3] G F F E e d c B | 
[V:4] z8 | 
[V:1] b2a2g2e'2 | 
[V:2] c B c d d e B =B | 
[V:3] A G F F F E G, G, | 
[V:4] z4z2E E | 
[V:1] e'2c'2b2a2 | 
[V:2] =B c c d d e e f | 
[V:3] G, A, A, B, B, C C D | 
[V:4] E E E E E E E E | 
[V:1] g2a f e d' e' c' | 
[V:2] f g f de2B2 | 
[V:3] D E B AG2G2 | 
[V:4] E E E EE2z2 | 
[V:1] c' b B a a g G f | 
[V:2] e2d2e2g2 | 
[V:3] G2F2G2B2 | 
[V:4] z2z B,,B,2z B,, | 
[V:1] f e f g a =a b c' | 
[V:2] B2A2G2e2 | 
[V:3] G2F2E2G2 | 
[V:4] B,2z B,,B,2z B,, | 
[V:1] b =a b c' d' e' f' f' | 
[V:2] e2c2B2=A2 | 
[V:3] G2E2D2C2 | 
[V:4] B,2z B,,B,2z B,, | 
[V:1] f' f' g' =a' b' b c' b | 
[V:2] c2B2B2B2 | 
[V:3] E2D2D2G2 | 
[V:4] B,2z B,,B,2z B,, | 
[V:1] c' b B a a g G f | 
[V:2] e2d2e2g2 | 
[V:3] G2F2G2B2 | 
[V:4] B,2z B,,B,2z B,, | 
[V:1] f e e' d' e' d' c' =b | 
[V:2] B2A2G2e2 | 
[V:3] G2F2E2G2 | 
[V:4] B,2z B,E2z E, | 
[V:1] =b c' d' e' =e' f' g' a' | 
[V:2] e2c2B2A2 | 
[V:3] c2A2G2F2 | 
[V:4] A,2z A,,A,2z B,, | 
[V:1] =a' b' c'' d''e''2e2 | 
[V:2] G2A F E B c A | 
[V:3] E B, B, A, G, G, A, F, | 
[V:4] B,2z B,, E, E, E, E, | 
[V:1] e2e2e2e2 | 
[V:2] G2c2B2A2 | 
[V:3] G,2E2E2E2 | 
[V:4] E,2A2G2F2 | 
[V:1] e2f ga2g2 | 
[V:2] G2F2E2E2 | 
[V:3] E2e2e2e2 | 
[V:4] E2D2C2B,2 | 
[V:1] c'2b2a2g2 | 
[V:2] E2B cd2e2 | 
[V:3] e2e2B2B2 | 
[V:4] A,2G,2F,2E,2 | 
[V:1] f2e2f2B2 | 
[V:2] d2c2d2z2 | 
[V:3] B2B2B2A2 | 
[V:4] B,,2B,2B,2F2 | 
[V:1] e2e2e2e2 | 
[V:2] z8 | 
[V:3] G2c2B2A2 | 
[V:4] E2A2G2F2 | 
[V:1] e2f ga2g2 | 
[V:2] E2e2e2e2 | 
[V:3] G2F2E2E2 | 
[V:4] E2D2C2B,2 | 
[V:1] c'2b2a2g2 | 
[V:2] e2e2f2g2 | 
[V:3] B2B cd2e2 | 
[V:4] A,2G,2F,2E,2 | 
[V:1] f2e2d2c2 | 
[V:2] B2c2B2A2 | 
[V:3] d2z2z2B,2 | 
[V:4] B,2z2z2B,,2 | 
[V:1] B2A2G2F2 | 
[V:2] G2F2E2B,2 | 
[V:3] B,2A,2G,2F,2 | 
[V:4] G,2F,2E,2B,,2 | 
[V:1] E2D2C2B,2 | 
[V:2] G,2z2z4 | 
[V:3] E,2z2z4 | 
[V:4] G,,2z2z4 | 
[V:1] c'2b2a2g2 | 
[V:2] a2g2f2e2 | 
[V:3] D2E2B2B2 | 
[V:4] z4D2E2 | 
[V:1] f2e2d2c2 | 
[V:2] d2c2B2[E2=A2] | 
[V:3] B2F2F2_G2 | 
[V:4] F2E,2B,2B,2 | 
[V:1] _G2=G2E2G2 | 
[V:2] z8 | 
[V:3] _G,2=G,2E,2G,2 | 
[V:4] _G,,2=G,,2E,,2G,,2 | 
[V:1] A2=A2c4 | 
[V:2] z4C2c2 | 
[V:3] A,2=A,2[C,4C4] | 
[V:4] A,,2=A,,2C,4 | 
[V:1] _D2=D2B,2D2 | 
[V:2] z8 | 
[V:3] z8 | 
[V:4] _D,2=D,2B,,2D,2 | 
[V:1] E2=E2G4 | 
[V:2] z4G2g2 | 
[V:3] z4G,2G2 | 
[V:4] E,2=E,2G,4 | 
[V:1] =E2F2A4 | 
[V:2] z4A2a2 | 
[V:3] z4A,2A2 | 
[V:4] =E,2F,2A,4 | 
[V:1] ^F2G2B4 | 
[V:2] z4B2b2 | 
[V:3] z4B,2B2 | 
[V:4] ^F,2G,2B,4 | 
[V:1] [e8e'8] | 
[V:2] ^G2=A2[A4c4] | 
[V:3] ^G,2=A,2[F,4A,4] | 
[V:4] F,,2F,,2F,,4 | 
[V:1] [e8e'8] | 
[V:2] ^G2=A2[A4c4] | 
[V:3] ^G,2=A,2[F,4A,4] | 
[V:4] F,,2F,,2F,,4 | 
[V:1] [e8e'8] | 
[V:2] ^G2=A2[A4c4] | 
[V:3] ^G,2=A,2[F,4A,4] | 
[V:4] F,,2F,,2F,,4 | 
[V:1] [e2e'2]d' c'b2a g | 
[V:2] [B2b2]b ag2f e | 
[V:3] B,2C2E2F G | 
[V:4] G,,2A,,2B,,2D E | 
[V:1] e'2(3f' e' d'e'2(3f' e' d' | 
[V:2] ^g2[=A2=a2][A4c'4] | 
[V:3] [F,2C2][F,2C2][F,4C4] | 
[V:4] [F,,2C,2][F,,2C,2][F,,4C,4] | 
[V:1] e'2(3f' e' d'e'2(3f' e' d' | 
[V:2] ^g2[=A2=a2][A4c'4] | 
[V:3] [F,2C2][F,2C2][F,4C4] | 
[V:4] [F,,2C,2][F,,2C,2][F,,4C,4] | 
[V:1] e'2(3f' e' d'e'2(3f' e' d' | 
[V:2] ^g2[=A2=a2][A4c'4] | 
[V:3] [F,2C2][F,2C2][F,4C4] | 
[V:4] [F,,2C,2][F,,2C,2][F,,4C,4] | 
[V:1] e'2d' c'b2a g | 
[V:2] B b b ag2f e | 
[V:3] G,2C,2E, E F G | 
[V:4] G,,2A,,2B,,2D E | 
[V:1] b a g aa2a2 | 
[V:2] g f =e ff2f2 | 
[V:3] E F G FF2F2 | 
[V:4] C D D DD2D2 | 
[V:1] a g ^f gg2z2 | 
[V:2] f e d ee2z2 | 
[V:3] F G G GG2E2 | 
[V:4] D E E EE2C2 | 
[V:1] z8 | 
[V:2] z8 | 
[V:3] D C B, CB,2C2 | 
[V:4] B, A, G, A,G,2A,2 | 
[V:1] z4z2c' b | 
[V:2] z4z2a g | 
[V:3] B, A, G, A,G,2G2 | 
[V:4] G, F, E, F,E,2E2 | 
[V:1] b a g aa2a2 | 
[V:2] g f =e ff2f2 | 
[V:3] E F G FF2F2 | 
[V:4] C D D DD2D2 | 
[V:1] a g ^f gg2b2 | 
[V:2] f e d ee2g2 | 
[V:3] F G G GG2z2 | 
[V:4] D E E EE2z2 | 
[V:1] b a g aa2a2 | 
[V:2] g f =e ff2f2 | 
[V:3] C, D,z2z4 | 
[V:4] =A,, B,,z2z4 | 
[V:1] b a g aa2a2 | 
[V:2] g f =e ff2f2 | 
[V:3] D, E,z2z4 | 
[V:4] =B,,2z2z4 | 
[V:1] a g ^f gg2g2 | 
[V:2] f e d ee2e2 | 
[V:3] D, E,z2z4 | 
[V:4] =B,, C,z2z4 | 
[V:1] g2g2g2g2 | 
[V:2] e2e2e2e2 | 
[V:3] E, G,z2z4 | 
[V:4] C, E,z2z4 | 
[V:1] g2g2g2g2 | 
[V:2] =e2e2e2e2 | 
[V:3] =E, G,z2z4 | 
[V:4] C, =E,C2C2C2 | 
[V:1]  [K:C] [M:6/8]g6 | 
[V:2]  [K:C] [M:6/8]e6- | 
[V:3]  [K:C] [M:6/8]z6 | 
[V:4]  [K:C] [M:6/8]C6- | 
[V:1] g6- | 
[V:2] e6- | 
[V:3] z6 | 
[V:4] C6 | 
[V:1] g3(3g/ f/ e/ (3d/ c/ B/ (3A/ G/ B/ | 
[V:2] e3(3e/ d/ c/ (3B/ A/ G/ (3F/ E/ D/ | 
[V:3] E G z E G z | 
[V:4] C E z C E z | 
[V:1] c g e/ c/ G/ f/-f2 | 
[V:2] (3E/ C/ D/ (3E/ F/ G/ (3A/ B/ c/ (3d/ e/ c/ (3B/ A/ G/ (3F/ E/ D/ | 
[V:3] Ec2B3 | 
[V:4] C3-C3- | 
[V:1] c g e/ c/ ^F/ ^f/-f2 | 
[V:2] (3E/ C/ D/ (3E/ F/ G/ (3A/ B/ c/ (3c/ _e/ c/ (3e/ c/ e/ (3c/ e/ c/ | 
[V:3] Ec2_E3- | 
[V:4] C3-C3- | 
[V:1] G/ g/ _A/ _a/ (3_e/ f/ _d/ (3c/ d/ _B/ (3A/ B/ G/ (3F/ _E/ G/ | 
[V:2] (3_e/ c/ e/ (3c/ e/ _d/ (3c/ d/ _B/ (3_A/ B/ G/ (3F/ G/ _E/ (3_D/ C/ _B,/ | 
[V:3] E c/ z/ zz2z | 
[V:4] C _A,/ z/ zz2z | 
[V:1] (3_E/ C/ _D/ (3E/ F/ G/ (3_A/ _B/ c/ (3_d/ c/ B/ (3A/ G/ F/ (3E/ F/ G/ | 
[V:2] _A _e c/ A/ _E/ _d/-d2 | 
[V:3] (3C/ _A,/ _B,/ (3C/ _D/ _E/ (3F/ G/ _A/ (3_B/ A/ G/ (3F/ E/ D/ (3C/ D/ B,/ | 
[V:4] _A,,3-A,,3- | 
[V:1] (3_E/ C/ _D/ (3E/ F/ G/ (3_A/ _B/ c/ (3_c/ A/ c/ (3A/ c/ A/ (3c/ A/ c/ | 
[V:2] _A _e c/ A/ D/ d/-d2 | 
[V:3] (3C/ _A,/ B,/ (3C/ _D/ _E/ (3F/ G/ _A/ (3A/ _c/ A/ (3c/ A/ c/ (3A/ c/ A/ | 
[V:4] A,,3-A,,3- | 
[V:1] (3_A/ _c/ A/ (3c/ A/ c/ (3E/ E/ E/ (3E/ ^F/ ^G/ (3=A/ B/ ^c/ (3^d/ e/ ^f/ | 
[V:2] ^D/ ^d/ E/ e/ (3e/ d/ ^c/ (3B/ A/ ^G/ (3^F/ E/ D/ (3^C/ B,/ G,/ | 
[V:3] (3_c/ _A/ c/ (3A/ c/ A/ (3^G,/ G,/ G,/ (3G,/ A,/ B,/ (3^C/ ^D/ E/ (3^F/ ^G/ =A/ | 
[V:4] A,, _F,,/ z/ zz2z[K:clef=tenor] | 
[V:1] (3^g/ e/ ^f/ (3g/ a/ b/ (3^c'/ ^d'/ e'/ (3^f'/ e'/ d'/ (3c'/ b/ a/ (3g/ a/ f/ | 
[V:2] (3^G,/ ^g/ ^f/ (3e/ ^d/ ^c/ (3B/ A/ ^G/ (3^F/ G/ A/ (3B/ c/ d/ (3e/ f/ d/ | 
[V:3] BE,2-E,3- | 
[V:4] E B G/ E/ E/ A/-A2 | 
[V:1] (3^g/ e/ ^f/ (3g/ a/ b/ (3^c'/ ^d'/ e'/ (3f/ ^f'/ f/ (3f'/ f/ f'/ (3f/ f'/ f/ | 
[V:2] (3b/ ^g/ ^f/ (3e/ ^d/ ^c/ (3B/ A/ ^G/ (3A/ a/ A/ (3a/ A/ a/ (3A/ a/ A/ | 
[V:3] E,3-E,3 | 
[V:4] E B ^G/ E/A3 | 
[V:1] (3^f'/ ^f/ f'/ (3g/ g'/ g/ (3g'/ g/ g'/ (3g/ g'/ g/ (3_a'/ _a/ a'/ (3a/ a'/ a/ | 
[V:2] a _b z =b c' z | 
[V:3] _E, E, z E, E, z | 
[V:4] A _B z =B c z | 
[V:1] (3_a'/ _a/ a'/ (3a/ a'/ a/ (3a'/ a/ a'/ (3a/ a'/ a/ (3g'/ g/ g'/ (3g/ g'/ g/ | 
[V:2] f f z f [_Bg] z | 
[V:3] _E, E, z E, E, z | 
[V:4] _d =d z d _e z | 
[V:1]  [K:Eb] g'2>-g'2a'2 | 
[V:2]  [K:Eb] (3B,/ B/ B,/ (3B/ B,/ B/ (3B,/ B/ B,/ (3B/ B,/ B/ (3B,/ B/ B,/ (3B/ B,/ B/ | 
[V:3]  [K:Eb] E B G/ E/ B,/ A/-A2 | 
[V:4]  [K:Eb] (3G/ E/ F/ (3G/ A/ B/ (3c/ d/ e/ (3f/ e/ d/ (3c/ B/ A/ (3G/ A/ F/ | 
[V:1] g'3f'2(3e'/ f'/ g'/ | 
[V:2] (3B,/ B/ B,/ (3B/ B,/ B/ (3B,/ B/ B,/ (3c/ C/ c/ (3C/ c/ C/ (3c/ C/ c/ | 
[V:3] E B G/ E/ =A,/ =A/-A2 | 
[V:4] (3G/ E/ F/ (3G/ A/ B/ (3c/ d/ e/ (3f/ e/ d/ (3c/ B/ =A/ (3G/ F/ E/ | 
[V:1] g/ g'/ g/ g'/ z a/ a'/ a/ a'/ z | 
[V:2] G, z G/ g/ z z A/ a/ | 
[V:3] B,/ B/ =B,/ =B/ z B,/ B/ C/ c/ z | 
[V:4] (3E/ e/ E/ (3e/ E/ e/ (3E/ e/ E/ (3e/ E/ e/ (3E/ e/ E/ (3e/ E/ e/ | 
[V:1] f/ f'/ ^f/ ^f'/ z f/ f'/ g/ g'/ z | 
[V:2] z z ^F/ ^f/ z z G/ g/ | 
[V:3] A,/ A/ =A,/ =A/ z A,/ A/ B,/ B/ z | 
[V:4] (3E/ e/ E/ (3e/ E/ e/ (3E/ e/ E/ (3e/ E/ e/ (3E/ e/ E/ (3e/ E/ e/[K:clef=bass] | 
[V:1] e e' b/ g/ E e c/ A/ | 
[V:2] G/ g/ G/ g/ z G/ g/ A/ a/ z | 
[V:3] (3E,/ E/ E,/ (3E/ E,/ E/ (3E,/ E/ E,/ (3E/ E,/ E/ (3E,/ E/ E,/ (3E/ E,/ E/ | 
[V:4] B,,/ B,/ =B,,/ =B,/ z B,,/ B,/ C,/ C/ z | 
[V:1] e e' c'/ ^f/ E e B/ G/ | 
[V:2] F/ f/ ^F/ ^f/ z F/ f/ G/ g/ z | 
[V:3] (3E,/ E/ E,/ (3E/ E,/ E/ (3E,/ E/ E,/ (3E/ E,/ E/ (3E,/ E/ E,/ (3E/ E,/ E/ | 
[V:4] A,,/ A,/ =A,,/ =A,/ z A,,/ A,/ B,,/ B,/ z | 
[V:1] e e' =b/ g/ E e c/ A/ | 
[V:2] E e =B/ G/ z c' e/ c/ | 
[V:3] (3E,/ E/ E,/ (3E/ E,/ E/ (3E,/ E/ E,/ (3E/ E,/ E/ (3E,/ E/ E,/ (3E/ E,/ E/ | 
[V:4] _G,,/ _G,/ =G,,/ =G,/ z G,,/ G,/ A,,/ A,/ z | 
[V:1] e e' c'/ =a/ e e' g/ g'/ | 
[V:2] E e c/ =A/ E e B/ [B,/G/] | 
[V:3] (3E,/ E/ E,/ (3E/ E,/ E/ (3E,/ E/ E,/ (3E/ E,/ E/ (3E,/ E/ E,/ (3E/ E,/ E/ | 
[V:4] F,,/ F,/ ^F,,/ ^F,/ z F,,/ F,/ G,,/ G,/ (3E,,/ E,,/ E,,/ | 
[V:1] e' b' g'/ e'/a'3 | 
[V:2] (3B/ G/ A/ (3B/ c/ d/ (3e/ f/ g/ (3f/ e/ d/ (3c/ B/ A/ (3G/ A/ F/ | 
[V:3] (3G/ E/ F/ (3G/ A/ B/ (3c/ d/ e/ (3d/ c/ B/ (3A/ G/ F/ (3E/ F/ D/ | 
[V:4] (3E,,/ E,,/ E,,/ (3E,,/ E,,/ E,,/ (3E,,/ E,,/ E,,/ (3E,,/ E,,/ E,,/ (3E,,/ E,,/ E,,/ (3E,,/ E,,/ E,,/ | 
[V:1] e' b' g'/ e'/=a'3 | 
[V:2] (3G/ E/ F/ (3G/ A/ B/ (3c/ d/ e/ (3_G/ G/ G/ (3G/ G/ G/ (3G/ G/ G/ | 
[V:3] (3B,/ G,/ A,/ (3B,/ C/ D/ (3E/ F/ G/ (3c/ c/ c/ (3c/ c/ c/ (3c/ c/ c/ | 
[V:4] (3E,,/ E,,/ E,,/ (3E,,/ E,,/ E,,/ (3E,,/ E,,/ E,,/ (3E,,/ E,,/ E,,/ (3E,,/ E,,/ E,,/ (3E,,/ E,,/ E,,/ | 
[V:1] b' c'' a'/ f'/ e' d' c'/ b/ | 
[V:2] (3F/ F/ F/ (3F/ F/ F/ (3F/ F/ F/ (3A/ A/ A/ (3A/ A/ A/ (3A/ A/ A/ | 
[V:3] (3[B,/A/] [B,/A/] [B,/A/] (3[B,/A/] [B,/A/] [B,/A/] (3[B,/A/] [B,/A/] [B,/A/] (3[B,/F/] [B,/F/] [B,/F/] (3[B,/F/] [B,/F/] [B,/F/] (3[B,/F/] [B,/F/] [B,/F/] | 
[V:4] (3E,,/ E,,/ E,,/ (3E,,/ E,,/ E,,/ (3E,,/ E,,/ E,,/ (3E,,/ E,,/ E,,/ (3E,,/ E,,/ E,,/ (3E,,/ E,,/ E,,/ | 
[V:1] c' d' e'/ f'/ g' a' f' | 
[V:2] (3[A,/A/] [A,/A/] [A,/A/] (3[A,/A/] [A,/A/] [A,/A/] (3[A,/A/] [A,/A/] [A,/A/] (3[A,/A/] [A,/A/] [A,/A/] (3[A,/A/] [A,/A/] [A,/A/] (3[A,/A/] [A,/A/] [A,/A/] | 
[V:3] (3[B,/F/] [B,/F/] [B,/F/] (3[B,/F/] [B,/F/] [B,/F/] (3[B,/F/] [B,/F/] [B,/F/] (3[B,/F/] [B,/F/] [B,/F/] (3[B,/F/] [B,/F/] [B,/F/] (3[B,/F/] [B,/F/] [B,/F/] | 
[V:4] (3E,,/ E,,/ E,,/ (3E,,/ E,,/ E,,/ (3E,,/ E,,/ E,,/ (3E,,/ E,,/ E,,/ (3E,,/ E,,/ E,,/ (3E,,/ E,,/ E,,/ | 
[V:1] E B G/ E/ B,/ A/-A2 | 
[V:2] (3[G,/G/] G,/ A,/ (3B,/ C/ D/ (3E/ F/ G/ (3A/ B/ c/ (3d/ e/ f/ (3g/ a/ f/ | 
[V:3] (3[B,/E/] E,/ F,/ (3G,/ A,/ B,/ (3C/ D/ E/ (3F/ G/ A/ (3B/ c/ d/ (3e/ f/ d/ | 
[V:4] (3E,,/ E/ E/ (3E/ E/ E/ (3E/ E/ E/ (3E/ D/ C/ (3B,/ A,/ G,/ (3F,/ E,/ F,/ | 
[V:1] E B G/ E/ =A/ =a/-a2 | 
[V:2] (3b/ G/ A/ (3B/ c/ d/ (3e/ f/ g/ (3g/ e/ d/ (3c/ B/ =A/ (3G/ F/ E/ | 
[V:3] (3B/ G,/ A,/ (3B,/ C/ D/ (3E/ F/ G/ (3E/ c/ B/ (3=A/ G/ F/ (3E/ D/ C/ | 
[V:4] (3G,/ E,,/ F,,/ (3G,,/ A,,/ B,,/ (3C,/ D,/ E,/ (3F,,/ F,,/ F,,/ (3F,,/ F,,/ F,,/ (3F,,/ F,,/ F,,/ | 
[V:1] B/ b/ c/ c'/ a/ f/ e/ e'/ d/ d'/ c'/ b/ | 
[V:2] (3[A,/D/] [A,/D/] [A,/D/] (3[A,/D/] [A,/D/] [A,/D/] (3[A,/D/] [A,/D/] [A,/D/] (3[A,/D/] [A,/D/] [A,/D/] (3[A,/D/] [A,/D/] [A,/D/] (3[A,/D/] [A,/D/] [A,/D/] | 
[V:3] (3B,/ B,/ B,/ (3B,/ B,/ B,/ (3B,/ B,/ B,/ (3B,/ B,/ B,/ (3B,/ B,/ B,/ (3B,/ B,/ B,/ | 
[V:4] (3F,,/ F,,/ F,,/ (3F,,/ F,,/ F,,/ (3F,,/ F,,/ F,,/ (3F,,/ F,,/ F,,/ (3F,,/ F,,/ F,,/ (3F,,/ F,,/ F,,/ | 
[V:1] c/ c'/ d/ d'/ e'/ f'/ g/ g'/ a/ a'/ f/ f'/ | 
[V:2] (3[A,/D/] [A,/D/] [A,/D/] (3[A,/D/] [A,/D/] [A,/D/] (3[A,/D/] [A,/D/] [A,/D/] (3[A,/D/] [A,/D/] [A,/D/] (3[A,/D/] [A,/D/] [A,/D/] (3[A,/D/] [A,/D/] [A,/D/] | 
[V:3] (3B,/ B,/ B,/ (3B,/ B,/ B,/ (3B,/ B,/ B,/ (3B,/ B,/ B,/ (3B,/ B,/ B,/ (3B,/ B,/ B,/ | 
[V:4] (3F,,/ F,,/ F,,/ (3F,,/ F,,/ F,,/ (3F,,/ F,,/ F,,/ (3F,,/ F,,/ F,,/ (3F,,/ F,,/ F,,/ (3F,,/ F,,/ F,,/ | 
[V:1] e' e' z g' a' z | 
[V:2] b c' a/ f/ e f d/ B/ | 
[V:3] B, A, z B B z | 
[V:4] G,, A,, z B,, B, z | 
[V:1] z6 | 
[V:2] e e z g a z | 
[V:3] B c A/ F/ E F D/ B,/ | 
[V:4] G, A, z B, B, z | 
[V:1] z2z g a f/ d/ | 
[V:2] B c A/ F/ G A F/ D/ | 
[V:3] B B z B B z | 
[V:4] B, C A,/ F,/ E, F, D,/ B,,/ | 
[V:1] b c' a/ f/ e' f' b/ d'/ | 
[V:2] e e e/ d/ g a f/ d/ | 
[V:3] B c A/ F/ G A F/ [A,/F/] | 
[V:4] G,, A,, F,,/ B,,/ =B,, _B,, B,,/ B,,/ | 
[V:1] (3e'/ d'/ c'/ (3b/ a/ g/ (3c'/ b/ a/ (3g/ f/ e/ (3d/ c/ B/ (3c/ d/ B/ | 
[V:2] (3B,/ B,/ B,/ (3B,/ B,/ B,/ (3C/ C/ C/ (3C/ C/ C/ (3D/ D/ D/ (3D/ D/ D/ | 
[V:3] (3G,/ G,/ G,/ (3G,/ G,/ G,/ (3A,/ A,/ A,/ (3A,/ A,/ A,/ (3F,/ F,/ F,/ (3F,/ F,/ F,/ | 
[V:4] (3E,/ E,/ E,/ (3E,/ E,/ E,/ (3E,/ E,/ E,/ (3E,/ E,/ E,/ (3E,/ E,/ E,/ (3E,/ E,/ E,/ | 
[V:1] (3e/ d/ c/ (3B/ A/ G/ (3c/ B/ A/ (3G/ F/ E/ (3D/ C/ B,/ (3C/ D/ B,/ | 
[V:2] (3e/ d/ c/ (3B/ A/ G/ (3c/ B/ A/ (3G/ F/ E/ (3D/ C/ B,/ (3C/ D/ B,/ | 
[V:3] (3E/ D/ C/ (3B/ A/ G/ (3c/ B/ A/ (3G/ F/ E/ (3D/ C/ B,/ (3C/ D/ B,/ | 
[V:4] (3E/ D/ C/ (3B,/ A,/ G,/ (3C/ B,/ A,/ (3G,/ F,/ E,/ (3D,/ C,/ B,,/ (3C,/ D,/ B,,/ | 
[V:1] E [G,Ee] z z [DBf] z | 
[V:2] E [G,Ee] z z [DBf] z | 
[V:3] E [E,G,] z z [B,D] z | 
[V:4] E, E z z B, z | 
[V:1] z [EBg] z z [Bb] z | 
[V:2] z [EBg] z z [DBf] z | 
[V:3] z E z z B, z | 
[V:4] z E, z z B,, z | 
[V:1] (3B/ c/ B/ (3_c/ =c/ _c/ (3B/ =c/ B/ (3B/ _c/ B/ (3c/ =c/ _c/ B | 
[V:2] (3e/ f/ e/ (3d/ e/ d/ (3e/ f/ e/ (3e/ f/ e/ (3d/ e/ d/ e | 
[V:3] (3G/ A/ G/ (3A/ A/ A/ (3G/ A/ G/ (3G/ A/ G/ (3A/ A/ A/ G | 
[V:4] z6 | 
[V:1] (3B/ c/ d/ (3e/ f/ g/ (3a/ b/ c'/d'3 | 
[V:2] (3e/ [G/B/] [G/B/] (3[G/B/] [G/B/] [G/B/] (3[G/B/] [G/B/] [G/B/] (3f/ e/ d/ (3c/ B/ A/ (3G/ A/ F/ | 
[V:3] (3[B,/G/] [B,/G/] [B,/G/] (3[B,/G/] [B,/G/] [B,/G/] (3[B,/G/] [B,/G/] [B,/G/] B, F D/ B,/ | 
[V:4] E,, B,, G,,/ E,,/A,,3 | 
[V:1] (3B/ c/ B/ (3_c/ =c/ _c/ (3B/ =c/ B/ (3B/ _c/ B/ (3c/ =c/ _c/ B | 
[V:2] (3e/ f/ e/ (3d/ e/ d/ (3e/ f/ e/ (3e/ f/ e/ (3d/ e/ d/ e | 
[V:3] (3G/ A/ G/ (3A/ A/ A/ (3G/ A/ G/ (3G/ A/ G/ (3A/ A/ A/ G | 
[V:4] z6 | 
[V:1] e b g/ e/=a3 | 
[V:2] (3e/ B/ B/ (3B/ B/ B/ (3B/ B/ B/ (3B/ B/ B/ (3B/ B/ B/ (3B/ B/ B/ | 
[V:3] (3G/ G/ G/ (3G/ G/ G/ (3G/ G/ G/ (3_G/ G/ G/ (3G/ G/ G/ (3G/ G/ G/ | 
[V:4] (3E,/ F,/ G,/ (3A,/ B,/ C/ (3D/ E/ E/ (3E/ E/ E/ (3E/ E/ E/ (3E/ E/ E/ | 
[V:1] b2z=a3 | 
[V:2] (3B/ B/ B/ (3B/ B/ B/ (3B/ B/ B/ (3B/ B/ B/ (3B/ B/ B/ (3B/ B/ B/ | 
[V:3] (3G/ G/ G/ (3G/ G/ G/ (3G/ G/ G/ (3_G/ G/ G/ (3G/ G/ G/ (3G/ G/ G/ | 
[V:4] (3E/ E/ E/ (3E/ E/ E/ (3E/ E/ E/ (3E/ E/ E/ (3E/ E/ E/ (3E/ E/ E/ | 
[V:1] b2z[B2f2d'2]z | 
[V:2] B2z[B2f2]z | 
[V:3] B,2z[B,2F2d2]z | 
[V:4] B,,2zB,2z | 
[V:1] [B2g2e'2]zz2z |]  
[V:2] [B2g2]zz2z |]  
[V:3] [G,2E2e2]zz2z |]  
[V:4] E,,2zz2z |]  


